X:1
T:Title
%%score { ( 1 3 ) | ( 2 4 ) }
L:1/8
M:4/4
K:Eb
V:1 treble nm="Grand Piano"
V:3 treble 
V:2 bass 
V:4 bass 
V:1
 z4 z2[Q:1/4=100] [EG]2 | [GB]2 [GB]2 [_G=A]2 [=GB]2 | [_Gd]2 [Gc]2 [=GB]2 e2 | d2 c2 B2 A2 | %4
[M:3/4] G4 F2 |[M:1/4] G2 |[M:4/4] G2 A2 B2 [GB]2 | [_Gc]2 [Fd]2 [Ee]2 [Ec]2 | %8
 [EB]2 [CA]G [A,CG]2 [A,DF]2 |[M:3/4] [G,E]6 |] %10
V:2
 z4 z2 [E,B,]2 | [E,E]2 [E,D]2 [E,C]2 [E,B,]2 | [E,=A,]2 [E,A,]2 [E,B,]2[K:treble] [G,B,E]2 | %3
 [A,=B,F]2[K:bass] [A,CE]2 [F,CE]2 [F,B,E]2 |[M:3/4] [B,,B,]6 |[M:1/4] [E,B,E]2 | %6
[M:4/4] [E,B,D]2 [E,A,C]2 [E,G,B,]2 [E,B,]2 | [E,=A,]2 [=B,,_A,]2 [C,G,]2 [A,,A,]2 | %8
 [B,,G,]2 z B, B,,2 B,,2 |[M:3/4] E,6 |] %10
V:3
 x8 | x8 | x8 | x8 |[M:3/4] D6 |[M:1/4] x2 |[M:4/4] x8 | x8 | z2 E2 z4 |[M:3/4] x6 |] %10
V:4
 x8 | x8 | x6[K:treble] x2 | x2[K:bass] x6 |[M:3/4] x6 |[M:1/4] x2 |[M:4/4] x8 | x8 | z2 B,,2 z4 | %9
[M:3/4] x6 |] %10

